resources/icons/20px/sensor.svg

<svg width="20" height="20" viewBox="0 0 20 20" fill="none" xmlns="http://www.w3.org/2000/svg">
<rect x="18" y="18" width="16" height="2" transform="rotate(-180 18 18)" fill="#111418"/>
<path d="M16 16L4 16L6.12187 14.2318C6.30158 14.082 6.52811 14 6.76205 14L13.2379 14C13.4719 14 13.6984 14.082 13.8781 14.2318L16 16Z" fill="#111418"/>
<circle cx="10" cy="12" r="1" fill="#111418"/>
<path fill-rule="evenodd" clip-rule="evenodd" d="M13.6851 10.0399C14.0849 9.66002 14.1049 9.03019 13.7251 8.6303C11.566 6.36091 8.21735 6.55086 6.26816 8.6403C5.88831 9.04019 5.9183 9.68002 6.31814 10.0499C6.71797 10.4298 7.35771 10.3998 7.72755 9.99993C8.91706 8.72028 10.9362 8.61031 12.2657 10.0099C12.6555 10.3998 13.2853 10.4198 13.6851 10.0399Z" fill="#111418"/>
<path fill-rule="evenodd" clip-rule="evenodd" d="M3.20465 6.40343C2.90478 6.80332 2.90478 7.50313 3.40457 7.80305C3.80441 8.10297 4.50412 8.10297 4.80399 7.60311C6.10346 5.90356 7.90271 5.00381 10.0018 5.00381C12.001 5.00381 14.1002 6.00354 15.1997 7.60311C15.4996 8.10297 16.0993 8.20295 16.5991 7.80305C16.899 7.60311 16.999 7.30319 16.999 7.00327C16.999 6.80332 16.899 6.60338 16.799 6.40343C15.2997 4.30399 12.7007 3.00434 10.0018 3.00434C7.203 2.91437 4.90395 4.20402 3.20465 6.40343Z" fill="#111418"/>
</svg>

<svg xmlns="http://www.w3.org/2000/svg" viewBox="0 0 20 20">
  <path d="M18 18H2v-2h16zM16 16H4l2.122-1.768a1 1 0 0 1 .64-.232h6.476a1 1 0 0 1 .64.232z"/>
  <circle cx="10" cy="12" r="1"/>
  <path d="M13.685 10.04c.4-.38.42-1.01.04-1.41-2.159-2.27-5.508-2.08-7.457.01A.996.996 0 1 0 7.728 10c1.19-1.28 3.208-1.39 4.538.01.39.39 1.02.41 1.42.03"/>
  <path d="M3.205 6.403c-.3.4-.3 1.1.2 1.4.4.3 1.1.3 1.399-.2 1.3-1.7 3.099-2.6 5.198-2.6 1.999 0 4.098 1 5.198 2.6.3.5.9.6 1.4.2.299-.2.399-.5.399-.8 0-.2-.1-.4-.2-.6-1.5-2.099-4.098-3.399-6.797-3.399-2.799-.09-5.098 1.2-6.797 3.4"/>
</svg>
